X:2443
T:Tanz
C:Georg Fuhrman
O:Germany
Z:Transcribed by Frank Nordberg - http://www.musicaviva.com
F:http://abc.musicaviva.com/tunes/fuhrman-georg/fuhrmann-tanz/fuhrmann-tanz-lte1.abc
V:1 Program 1 24 %Lute (Acoustic Nylon Guitar)
V:2 Program 2 24 bass %Lute (Acoustic Nylon Guitar)
M:3/4
L:1/4
Q:1/4=216
K:F
V:1
F2E|D2C|F2G|A3|c3|A3|c3|A3:|
V:2
F,,C,F,|F,,C,F,|F,,C,F,|F,,C,F,|F,,C,F,|F,,C,F,|F,,C,F,|F,,C,F,:|
%
V:1
|:c2B|A2G|F2E|D2C|F2G|A2G|F3|F3:|
V:2
|:F,,C,F,|F,,C,F,|F,,C,F,|F,,C,F,|F,,C,F,|F,,C,F,|F,,C,F,|F,,3:|
W:
W:
W:  From Musica Viva - http://www.musicaviva.com
W:  the Internet center for free sheet music downloads.

